img/features/apple.svg

<svg width="100" height="100" viewBox="0 0 100 100" fill="none" xmlns="http://www.w3.org/2000/svg">
<path d="M48.7679 30.2911C45.1544 30.2911 39.5609 26.1826 33.6704 26.3311C25.8989 26.4301 18.7709 30.8356 14.7614 37.8151C6.69292 51.8236 12.6824 72.5146 20.5529 83.8996C24.4139 89.4436 28.9679 95.6806 35.0069 95.4826C40.7984 95.2351 42.9764 91.7206 50.0054 91.7206C56.9849 91.7206 58.9649 95.4826 65.1029 95.3341C71.3399 95.2351 75.2999 89.6911 79.1114 84.0976C83.5169 77.6626 85.3484 71.4256 85.4474 71.0791C85.2989 71.0296 73.3199 66.4261 73.1714 52.5661C73.0724 40.9831 82.6259 35.4391 83.0714 35.1916C77.6264 27.2221 69.2609 26.3311 66.3404 26.1331C58.7174 25.5391 52.3319 30.2911 48.7679 30.2911ZM61.6379 18.6091C64.8554 14.7481 66.9839 9.35259 66.3899 4.00659C61.7864 4.20459 56.2424 7.07559 52.9259 10.9366C49.9559 14.3521 47.3819 19.8466 48.0749 25.0936C53.1734 25.4896 58.4204 22.4701 61.6379 18.6091Z" fill="#1C1C1C"/>
</svg>

<svg width="100" height="100" viewBox="0 0 100 100" fill="none" xmlns="http://www.w3.org/2000/svg"><path d="M48.768 30.291c-3.614 0-9.207-4.108-15.098-3.96-7.771.1-14.9 4.505-18.909 11.484-8.068 14.009-2.079 34.7 5.792 46.085 3.86 5.544 8.415 11.78 14.454 11.583 5.791-.248 7.97-3.762 14.998-3.762 6.98 0 8.96 3.762 15.098 3.613 6.237-.099 10.197-5.643 14.008-11.236 4.406-6.435 6.237-12.672 6.336-13.019-.148-.05-12.127-4.653-12.276-18.513-.099-11.583 9.455-17.127 9.9-17.374-5.445-7.97-13.81-8.86-16.73-9.059-7.624-.594-14.01 4.158-17.573 4.158zm12.87-11.682c3.217-3.86 5.346-9.256 4.752-14.602-4.604.198-10.148 3.069-13.464 6.93-2.97 3.415-5.544 8.91-4.851 14.157 5.098.396 10.345-2.624 13.563-6.485z" fill="#1C1C1C"/></svg>
